cssgg/edit-contrast.svg

<svg
  width="24"
  height="24"
  viewBox="0 0 24 24"
  fill="none"
  xmlns="http://www.w3.org/2000/svg"
>
  <path
    d="M12 18C10.4633 18 9.06151 17.4223 8 16.4722C6.7725 15.3736 6 13.777 6 12C6 10.223 6.7725 8.62643 8 7.52779C9.06151 6.57771 10.4633 6 12 6V18Z"
    fill="currentColor"
  />
  <path
    fill-rule="evenodd"
    clip-rule="evenodd"
    d="M2 12C2 6.47715 6.47715 2 12 2C17.5228 2 22 6.47715 22 12C22 17.5228 17.5228 22 12 22C6.47715 22 2 17.5228 2 12ZM12 20C7.58172 20 4 16.4183 4 12C4 7.58172 7.58172 4 12 4C16.4183 4 20 7.58172 20 12C20 16.4183 16.4183 20 12 20Z"
    fill="currentColor"
  />
</svg>

<svg viewBox="0 0 24 24" xmlns="http://www.w3.org/2000/svg"><g><path d="M12 18c-1.54 0-2.94-.58-4-1.53 -1.23-1.1-2-2.7-2-4.48 0-1.78.77-3.38 2-4.48 1.06-.96 2.46-1.53 4-1.53v12Z"/><path fill-rule="evenodd" d="M2 12C2 6.47 6.47 2 12 2c5.52 0 10 4.47 10 10 0 5.52-4.48 10-10 10C6.47 22 2 17.52 2 12Zm10 8c-4.42 0-8-3.59-8-8 0-4.42 3.58-8 8-8 4.41 0 8 3.58 8 8 0 4.41-3.59 8-8 8Z"/></g></svg>
